svgs/light/signs-post.svg

<svg xmlns="http://www.w3.org/2000/svg" viewBox="0 0 512 512"><!--! Font Awesome Pro 6.3.0 by @fontawesome - https://fontawesome.com License - https://fontawesome.com/license (Commercial License) Copyright 2023 Fonticons, Inc. --><path d="M240 16C240 7.164 247.2 0 256 0C264.8 0 272 7.164 272 16V32H440.3C445.2 32 449.8 34.21 452.8 38L504 102C508.7 107.8 508.7 116.2 504 121.1L452.8 185.1C449.8 189.8 445.2 192 440.3 192H272V224H448C465.7 224 480 238.3 480 256V352C480 369.7 465.7 384 448 384H272V496C272 504.8 264.8 512 256 512C247.2 512 240 504.8 240 496V384H71.69C66.83 384 62.23 381.8 59.2 377.1L7.996 313.1C3.322 308.2 3.322 299.8 7.996 294L59.2 230C62.23 226.2 66.83 224 71.69 224H240V192H64C46.33 192 32 177.7 32 160V64C32 46.33 46.33 32 64 32H240V16zM432.6 64H64V160H432.6L471 112L432.6 64zM40.98 304L79.38 352H448V256H79.38L40.98 304z"/></svg>

<svg xmlns="http://www.w3.org/2000/svg" viewBox="0 0 512 512"><!--! Font Awesome Pro 6.4.0 by @fontawesome - https://fontawesome.com License - https://fontawesome.com/license (Commercial License) Copyright 2023 Fonticons, Inc. --><path d="M240 16c0-8.8 7.2-16 16-16s16 7.2 16 16V32H440.3c4.9 0 9.5 2.2 12.5 6L504 102c4.7 5.8 4.7 14.1 0 20l-51.2 64c-3 3.8-7.6 6-12.5 6H272v32H448c17.7 0 32 14.3 32 32v96c0 17.7-14.3 32-32 32H272V496c0 8.8-7.2 16-16 16s-16-7.2-16-16V384H71.7c-4.9 0-9.5-2.2-12.5-6L8 314c-4.7-5.8-4.7-14.1 0-20l51.2-64c3-3.8 7.6-6 12.5-6H240V192H64c-17.7 0-32-14.3-32-32V64c0-17.7 14.3-32 32-32H240V16zM432.6 64H64v96H432.6L471 112 432.6 64zM79.4 256L41 304l38.4 48H448V256H79.4z"/></svg>
